svgs/mydealz.svg

<svg xmlns="http://www.w3.org/2000/svg" width="24" height="24" viewBox="0 0 24 24">
  <g>
    <path d="M21.91752,11.59251c-.49409-2.701-2.174-3.59035-3.39274-3.49154a3.50248,3.50248,0,0,0-2.07516,1.15287A7.93977,7.93977,0,0,0,15.44,8.72739a2.92321,2.92321,0,0,0-2.05578.22151l-.05613.031a3.46193,3.46193,0,0,0-1.567,1.68057l-.00225-.00131-.00119.00318a3.60231,3.60231,0,0,1-1.11789-.50277,3.74444,3.74444,0,1,1-.64621-4.31574,3.08286,3.08286,0,0,1,1.61392-1.103,2.97156,2.97156,0,0,1,2.09387.17185,3.04042,3.04042,0,0,0-2.55489-1.58794,2.94444,2.94444,0,0,0-1.97634.5929C7.72076,2.92953,4.72331,3.32481,3.274,5.20234c-1.28461,1.67988-1.77869,4.2162-.62583,7.6748,1.41638,4.2162,5.73139,6.91721,8.49828,7.576,2.6915.6117,5.32315.05561,6.10787-2.53173a2.27208,2.27208,0,0,1-.26956.01142,1.88426,1.88426,0,0,1-1.187-.38279,2.75641,2.75641,0,0,1-1.55505,1.355c-1.81165.69171-4.71029-.85643-5.53377-2.37162-.92229-1.67988-.75759-3.228.03294-3.49153.35789-.10438.52832.04927.83825.34794a10.33434,10.33434,0,0,0,6.39069,2.452l.01765-.00012.00031.00131a19.24711,19.24711,0,0,0,3.60546-.049A3.48952,3.48952,0,0,0,21.91752,11.59251Zm-6.95016,1.087a.86118.86118,0,0,1-.95522-.7576.80269.80269,0,0,1,.79053-.88936.90173.90173,0,0,1,.95524.75762A.80269.80269,0,0,1,14.96736,12.6795Zm4.28208-.42821a.7551.7551,0,0,1-.85641-.65878.79655.79655,0,1,1,.85641.65878Z"/>
    <path d="M18.17967,16.385a1.11853,1.11853,0,0,1-1.19255,1.00679.99059.99059,0,0,1-1.08864-1.03519A9.69185,9.69185,0,0,0,18.17967,16.385Z"/>
    <path d="M9.73005,15.18288a.90855.90855,0,0,0,1.21093-.221,6.55734,6.55734,0,0,1-1.48035-1.01268A.986.986,0,0,0,9.73005,15.18288Z"/>
    <path d="M11.73933,16.59926a1.247,1.247,0,0,0,1.50425-.6925,11.03793,11.03793,0,0,1-1.60306-.5592c-.04492-.0195-.08289-.03874-.12614-.0582-.09881-.04329-.19668-.08828-.29278-.1351l-.05223-.026c-.02961-.01474-.05971-.02915-.08882-.04421C10.98174,15.44639,11.0476,16.36868,11.73933,16.59926Z"/>
    <path d="M14.30857,17.34362a1.28288,1.28288,0,0,0,1.31658-1.01047,10.57682,10.57682,0,0,1-2.2067-.33288A1.14428,1.14428,0,0,0,14.30857,17.34362Z"/>
    <path d="M14.93092,6.98817a2.62227,2.62227,0,0,0-2.529-1.93984,2.65369,2.65369,0,0,0-.68838.09136A2.59592,2.59592,0,0,0,10.25793,6.1508,3.75429,3.75429,0,0,1,10.81211,9.762a2.67659,2.67659,0,0,0,.842.43809A3.46644,3.46644,0,0,1,13.169,8.69142l.05565-.03072a3.46655,3.46655,0,0,1,1.70566-.35788A2.68034,2.68034,0,0,0,14.93092,6.98817ZM12.7275,8.36448A.79054.79054,0,1,1,13.518,7.574.80154.80154,0,0,1,12.7275,8.36448Z"/>
    <path d="M10.652,8.19138a3.34443,3.34443,0,0,0-3.59809-3.055H7.02a3.33906,3.33906,0,1,0,3.632,3.055Zm-3.19474,1.326a1.02111,1.02111,0,1,1,1.02111-1.0211A1.02623,1.02623,0,0,1,7.45724,9.51734Z"/>
  </g>
</svg>

<svg xmlns="http://www.w3.org/2000/svg" width="24" height="24" xmlns:v="https://vecta.io/nano"><path d="M21.918 11.593c-.494-2.701-2.174-3.59-3.393-3.492a3.502 3.502 0 0 0-2.075 1.153 7.94 7.94 0 0 0-1.01-.526 2.923 2.923 0 0 0-2.056.222l-.056.031a3.462 3.462 0 0 0-1.567 1.681l-.002-.001-.001.003a3.602 3.602 0 0 1-1.118-.503 3.744 3.744 0 1 1-.646-4.316 3.083 3.083 0 0 1 1.614-1.103 2.972 2.972 0 0 1 2.094.172 3.04 3.04 0 0 0-2.555-1.588 2.944 2.944 0 0 0-1.976.593c-1.449-.988-4.447-.593-5.896 1.285-1.285 1.68-1.779 4.216-.626 7.675 1.416 4.216 5.731 6.917 8.498 7.576 2.691.612 5.323.056 6.108-2.532a2.272 2.272 0 0 1-.27.011 1.884 1.884 0 0 1-1.187-.383 2.756 2.756 0 0 1-1.555 1.355c-1.812.692-4.71-.856-5.534-2.372-.922-1.68-.758-3.228.033-3.492.358-.104.528.049.838.348a10.334 10.334 0 0 0 6.391 2.452h.018v.001a19.247 19.247 0 0 0 3.605-.049 3.49 3.49 0 0 0 2.323-4.202zm-6.95 1.087a.861.861 0 0 1-.955-.758.803.803 0 0 1 .791-.889.902.902 0 0 1 .955.758.803.803 0 0 1-.791.889zm4.282-.428a.755.755 0 0 1-.856-.659.797.797 0 1 1 .856.659z"/><path d="M18.18 16.385a1.119 1.119 0 0 1-1.193 1.007.991.991 0 0 1-1.089-1.035 9.692 9.692 0 0 0 2.281.028zm-8.45-1.202a.909.909 0 0 0 1.211-.221 6.557 6.557 0 0 1-1.48-1.013.986.986 0 0 0 .269 1.234z"/><path d="M11.739 16.599a1.247 1.247 0 0 0 1.504-.693 11.038 11.038 0 0 1-1.603-.559l-.126-.058-.293-.135-.052-.026-.089-.044c-.099.362-.033 1.285.659 1.515zm2.57.745a1.283 1.283 0 0 0 1.317-1.01A10.577 10.577 0 0 1 13.418 16a1.144 1.144 0 0 0 .89 1.343zm.622-10.356a2.622 2.622 0 0 0-2.529-1.94 2.654 2.654 0 0 0-.688.091 2.596 2.596 0 0 0-1.456 1.011 3.754 3.754 0 0 1 .554 3.611 2.677 2.677 0 0 0 .842.438 3.466 3.466 0 0 1 1.515-1.509l.056-.031a3.467 3.467 0 0 1 1.706-.358 2.68 2.68 0 0 0 .001-1.315zm-2.203 1.376a.791.791 0 1 1 .791-.79.802.802 0 0 1-.791.79zm-2.076-.173a3.344 3.344 0 0 0-3.598-3.055H7.02a3.339 3.339 0 1 0 3.632 3.055zM7.457 9.517a1.021 1.021 0 1 1 1.021-1.021 1.026 1.026 0 0 1-1.021 1.021z"/></svg>
